resources/assets/svg/email.svg

<?xml version="1.0" encoding="UTF-8"?>
<svg width="20px" height="20px" viewBox="0 0 20 20" version="1.1" xmlns="http://www.w3.org/2000/svg" xmlns:xlink="http://www.w3.org/1999/xlink" xmlns:sketch="http://www.bohemiancoding.com/sketch/ns">
    <!-- Generator: Sketch 3.4.2 (15855) - http://www.bohemiancoding.com/sketch -->
    <title>email</title>
    <desc>Created with Sketch.</desc>
    <defs></defs>
    <g id="Page-1" stroke="none" stroke-width="1" fill="none" fill-rule="evenodd" sketch:type="MSPage">
        <g id="email" sketch:type="MSArtboardGroup" fill="#4D4D4D">
            <path d="M12.65625,8.42447917 C12.65625,7.48697917 12.4240451,6.75347222 11.9596354,6.22395833 C11.4952257,5.69444444 10.8550347,5.4296875 10.0390625,5.4296875 C9.4921875,5.4296875 8.95399306,5.56206597 8.42447917,5.82682292 C7.89496528,6.09157986 7.41753472,6.45833333 6.9921875,6.92708333 C6.56684028,7.39583333 6.22178819,7.99045139 5.95703125,8.7109375 C5.69227431,9.43142361 5.55989583,10.2126736 5.55989583,11.0546875 C5.55989583,12.0269097 5.79210069,12.7777778 6.25651042,13.3072917 C6.72092014,13.8368056 7.37413194,14.1015625 8.21614583,14.1015625 C9.04947917,14.1015625 9.81336806,13.812934 10.5078125,13.2356771 C11.2022569,12.6584201 11.733941,11.937934 12.1028646,11.0742188 C12.4717882,10.2105035 12.65625,9.32725694 12.65625,8.42447917 L12.65625,8.42447917 Z M20,10 C20,10.9635417 19.8394097,11.8185764 19.5182292,12.5651042 C19.1970486,13.3116319 18.7695312,13.8975694 18.2356771,14.3229167 C17.7018229,14.7482639 17.1310764,15.0716146 16.5234375,15.2929688 C15.9157986,15.5143229 15.2864583,15.6336806 14.6354167,15.6510417 C14.5833333,15.6510417 14.516059,15.6532118 14.4335938,15.6575521 C14.3511285,15.6618924 14.2795139,15.6640625 14.21875,15.6640625 C13.3940972,15.6640625 12.7777778,15.4340278 12.3697917,14.9739583 C12.1267361,14.6875 11.9835069,14.3272569 11.9401042,13.8932292 C11.4887153,14.4661458 10.9179688,14.9435764 10.2278646,15.3255208 C9.53776042,15.7074653 8.78472222,15.8984375 7.96875,15.8984375 C6.57118056,15.8984375 5.48828125,15.483941 4.72005208,14.6549479 C3.95182292,13.8259549 3.56770833,12.65625 3.56770833,11.1458333 C3.56770833,9.78298611 3.85416667,8.52430556 4.42708333,7.36979167 C5,6.21527778 5.77690972,5.30164931 6.7578125,4.62890625 C7.73871528,3.95616319 8.80642361,3.61979167 9.9609375,3.61979167 C10.7161458,3.61979167 11.3888889,3.77387153 11.9791667,4.08203125 C12.5694444,4.39019097 13.0295139,4.82204861 13.359375,5.37760417 L13.3854167,5.13020833 L13.5286458,4.40104167 C13.5373264,4.34895833 13.5611979,4.296875 13.6002604,4.24479167 C13.6393229,4.19270833 13.6805556,4.16666667 13.7239583,4.16666667 L15.2604167,4.16666667 C15.3038194,4.16666667 15.3602431,4.21440972 15.4296875,4.30989583 C15.4730903,4.35329861 15.4861111,4.42274306 15.46875,4.51822917 L13.90625,12.5130208 C13.8628472,12.7213542 13.8411458,12.9296875 13.8411458,13.1380208 C13.8411458,13.4765625 13.8953993,13.7022569 14.0039062,13.8151042 C14.1124132,13.9279514 14.3055556,13.984375 14.5833333,13.984375 C14.8263889,13.9756944 15.0737847,13.9518229 15.3255208,13.9127604 C15.5772569,13.8736979 15.8940972,13.7695312 16.2760417,13.6002604 C16.6579861,13.4309896 16.9921875,13.2139757 17.2786458,12.9492188 C17.5651042,12.6844618 17.8125,12.2960069 18.0208333,11.7838542 C18.2291667,11.2717014 18.3333333,10.6770833 18.3333333,10 C18.3333333,7.46527778 17.578125,5.44270833 16.0677083,3.93229167 C14.5572917,2.421875 12.5347222,1.66666667 10,1.66666667 C8.87152778,1.66666667 7.79296875,1.88802083 6.76432292,2.33072917 C5.73567708,2.7734375 4.85026042,3.36588542 4.10807292,4.10807292 C3.36588542,4.85026042 2.7734375,5.73567708 2.33072917,6.76432292 C1.88802083,7.79296875 1.66666667,8.87152778 1.66666667,10 C1.66666667,11.1284722 1.88802083,12.2070312 2.33072917,13.2356771 C2.7734375,14.2643229 3.36588542,15.1497396 4.10807292,15.8919271 C4.85026042,16.6341146 5.73567708,17.2265625 6.76432292,17.6692708 C7.79296875,18.1119792 8.87152778,18.3333333 10,18.3333333 C11.9791667,18.3333333 13.7369792,17.7083333 15.2734375,16.4583333 C15.3689236,16.3802083 15.4730903,16.3454861 15.5859375,16.3541667 C15.6987847,16.3628472 15.7899306,16.4149306 15.859375,16.5104167 L16.3932292,17.1484375 C16.4626736,17.2526042 16.4930556,17.3567708 16.484375,17.4609375 C16.4670139,17.5737847 16.4149306,17.6692708 16.328125,17.7473958 C15.4427083,18.4678819 14.4552951,19.0234375 13.3658854,19.4140625 C12.2764757,19.8046875 11.1545139,20 10,20 C8.64583333,20 7.35243056,19.7352431 6.11979167,19.2057292 C4.88715278,18.6762153 3.82378472,17.9644097 2.9296875,17.0703125 C2.03559028,16.1762153 1.32378472,15.1128472 0.794270833,13.8802083 C0.264756944,12.6475694 0,11.3541667 0,10 C0,8.64583333 0.264756944,7.35243056 0.794270833,6.11979167 C1.32378472,4.88715278 2.03559028,3.82378472 2.9296875,2.9296875 C3.82378472,2.03559028 4.88715278,1.32378472 6.11979167,0.794270833 C7.35243056,0.264756944 8.64583333,0 10,0 C12.9861111,0 15.3993056,0.920138889 17.2395833,2.76041667 C19.0798611,4.60069444 20,7.01388889 20,10 L20,10 Z" sketch:type="MSShapeGroup"></path>
        </g>
    </g>
</svg>

<svg width="20" height="20" viewBox="0 0 20 20" xmlns="http://www.w3.org/2000/svg"><title>email</title><path d="M12.656 8.424c0-.937-.232-1.67-.696-2.2-.465-.53-1.105-.794-1.92-.794-.548 0-1.086.132-1.616.397s-1.006.63-1.432 1.1c-.425.47-.77 1.063-1.035 1.784-.265.72-.397 1.503-.397 2.345 0 .972.232 1.723.697 2.252.464.53 1.117.795 1.96.795.832 0 1.596-.29 2.29-.866.695-.578 1.227-1.298 1.596-2.162.37-.863.553-1.747.553-2.65zM20 10c0 .964-.16 1.82-.482 2.565-.32.747-.748 1.333-1.282 1.758-.534.425-1.105.75-1.713.97-.607.22-1.237.34-1.888.358-.052 0-.12.003-.2.008-.084.004-.155.006-.216.006-.826 0-1.442-.23-1.85-.69-.243-.287-.386-.647-.43-1.08-.45.572-1.022 1.05-1.712 1.432-.69.38-1.443.572-2.26.572-1.397 0-2.48-.414-3.248-1.243-.768-.83-1.152-2-1.152-3.51 0-1.362.286-2.62.86-3.775.572-1.155 1.35-2.068 2.33-2.74.98-.674 2.048-1.01 3.203-1.01.756 0 1.43.154 2.02.462.59.308 1.05.74 1.38 1.296l.025-.248.144-.73c.007-.05.03-.103.07-.155.04-.052.08-.078.124-.078h1.536c.044 0 .1.047.17.143.043.043.056.113.04.208l-1.564 7.995c-.043.208-.065.417-.065.625 0 .34.055.564.164.677.108.113.302.17.58.17.242-.01.49-.033.742-.072.25-.04.568-.143.95-.313s.716-.386 1.003-.65c.285-.266.532-.654.74-1.166.21-.512.313-1.107.313-1.784 0-2.535-.755-4.557-2.265-6.068-1.51-1.51-3.533-2.265-6.068-2.265-1.128 0-2.207.22-3.236.664-1.028.443-1.914 1.036-2.656 1.778-.742.742-1.335 1.628-1.777 2.656-.442 1.03-.663 2.108-.663 3.236 0 1.128.22 2.207.664 3.236.443 1.028 1.036 1.914 1.778 2.656.742.742 1.628 1.335 2.656 1.777 1.03.442 2.108.663 3.236.663 1.98 0 3.737-.625 5.273-1.875.096-.078.2-.113.313-.104.113.01.204.06.273.156l.533.638c.07.105.1.21.09.313-.016.114-.068.21-.155.287-.885.72-1.873 1.276-2.962 1.667-1.09.39-2.21.586-3.366.586-1.354 0-2.648-.265-3.88-.794-1.233-.53-2.296-1.242-3.19-2.136-.894-.894-1.606-1.957-2.136-3.19C.264 12.648 0 11.354 0 10s.265-2.648.794-3.88c.53-1.233 1.242-2.296 2.136-3.19.894-.894 1.957-1.606 3.19-2.136C7.352.264 8.646 0 10 0c2.986 0 5.4.92 7.24 2.76C19.08 4.6 20 7.014 20 10z" fill="#4D4D4D" fill-rule="evenodd"/></svg>
